X: 1
T:j'm'en vas chantant, riant - bourree
C:traditionell
Z:abc transcription Simon Wascher
N:please mail errors to: simon.wascher@chello.at
M:2/4
L:1/8
K:Gm
D|GG AB|A3B|c3/2c/2 BA|c2 BD|
GG AB|A2 G2|^FD =E^F|1G3:|2G4||
|:B2 AA|G3B|G3/2B/2 G^F|G^F DB|
AA AB|G2 A2|B/2A/2G A^F|1G4:|2
G3|]
